icons-rebrand/svg/audio-microphone-on-regular.svg

<svg width="32" height="32" viewBox="0 0 32 32" fill="none" xmlns="http://www.w3.org/2000/svg">
<path d="M24.0019 28.25H22.0229C20.741 28.2802 19.4945 27.8277 18.5305 26.9822C17.5665 26.1367 16.9552 24.9599 16.8179 23.685C18.1857 23.4876 19.4367 22.8045 20.3423 21.7607C21.2479 20.7168 21.7475 19.3819 21.7499 18V8C21.7499 6.47501 21.1441 5.01247 20.0658 3.93414C18.9875 2.8558 17.5249 2.25 15.9999 2.25C14.4749 2.25 13.0124 2.8558 11.9341 3.93414C10.8557 5.01247 10.2499 6.47501 10.2499 8V18C10.2521 19.4004 10.7649 20.752 11.6921 21.8014C12.6194 22.8509 13.8975 23.5263 15.2869 23.701C15.3703 24.5832 15.6286 25.44 16.0469 26.2212C16.4651 27.0025 17.0349 27.6925 17.7229 28.251H8.00293C7.80402 28.251 7.61325 28.33 7.4726 28.4707C7.33195 28.6113 7.25293 28.8021 7.25293 29.001C7.25293 29.1999 7.33195 29.3907 7.4726 29.5313C7.61325 29.672 7.80402 29.751 8.00293 29.751H24.0029C24.2018 29.751 24.3926 29.672 24.5333 29.5313C24.6739 29.3907 24.7529 29.1999 24.7529 29.001C24.7529 28.8021 24.6739 28.6113 24.5333 28.4707C24.3926 28.33 24.2018 28.251 24.0029 28.251L24.0019 28.25ZM11.7509 14.988V12.75H20.2509V14.988H11.7509ZM15.9999 3.75C17.1268 3.75106 18.2072 4.19917 19.004 4.99597C19.8008 5.79277 20.2489 6.87315 20.2499 8V11.25H11.7499V8C11.751 6.87315 12.1991 5.79277 12.9959 4.99597C13.7927 4.19917 14.8731 3.75106 15.9999 3.75Z" fill="#0F0F0F"/>
<path d="M11.75 15H20.25V18C20.25 19.0609 19.8286 20.0783 19.0784 20.8284C18.3283 21.5786 17.3109 22 16.25 22H15.75C14.6891 22 13.6717 21.5786 12.9216 20.8284C12.1714 20.0783 11.75 19.0609 11.75 18V15ZM11.75 11.25H20.25V12.75H11.75V11.25Z" fill="#27A17A"/>
</svg>

<svg width="32" height="32" viewBox="0 0 32 32" fill="none" xmlns="http://www.w3.org/2000/svg"><path d="M24.002 28.25h-1.979a5.114 5.114 0 0 1-5.205-4.565A5.754 5.754 0 0 0 21.75 18V8a5.75 5.75 0 0 0-11.5 0v10a5.755 5.755 0 0 0 5.037 5.701 6.668 6.668 0 0 0 2.436 4.55h-9.72a.75.75 0 1 0 0 1.5h16a.75.75 0 1 0 0-1.5zM11.751 14.988V12.75h8.5v2.238h-8.5zM16 3.75A4.254 4.254 0 0 1 20.25 8v3.25h-8.5V8A4.254 4.254 0 0 1 16 3.75z" fill="#0F0F0F"/><path d="M11.75 15h8.5v3a4 4 0 0 1-4 4h-.5a4 4 0 0 1-4-4v-3zM11.75 11.25h8.5v1.5h-8.5z" fill="#27A17A"/></svg>
